Carto/POI/SVG/airport-gate_solid_24px.svg

<svg width="24" height="24" viewBox="0 0 24 24" fill="none" xmlns="http://www.w3.org/2000/svg">
<path d="M4 18.13H20V21.13H4V18.13ZM22 7.24999C21.75 6.78999 20.7 6.86999 20.3 6.74999C19.9 6.62999 19.2 6.15999 18.57 6.50999L14.34 8.77999L7.34 4.91999C7.1995 4.84115 7.0411 4.79974 6.88 4.79974C6.7189 4.79974 6.5605 4.84115 6.42 4.91999L5.21 5.57999L11.04 10.58L6.83 12.88L4.15 11.06C4.00242 10.9645 3.83227 10.9096 3.65671 10.9008C3.48115 10.892 3.30637 10.9297 3.15 11.01L2 11.64L4.66 14.52L8.73 15.11C9.13565 15.167 9.54892 15.0934 9.91 14.9L20.21 9.27999L21 8.82999C21.5 8.57999 22.2 7.70999 22 7.24999Z" fill="#0F1621"/>
</svg>

<svg xmlns="http://www.w3.org/2000/svg" width="24" height="24" viewBox="0 0 24 24"><rect width="24" height="24" style="fill:none;opacity:0"/><path d="M4,18.13H20v3H4ZM22,7.25c-.25-.46-1.3-.38-1.7-.5s-1.1-.59-1.73-.24L14.34,8.78l-7-3.86a.94.94,0,0,0-.92,0l-1.21.66,5.83,5L6.83,12.88,4.15,11.06a1,1,0,0,0-1-.05L2,11.64l2.66,2.88,4.07.59a1.93,1.93,0,0,0,1.18-.21l10.3-5.62L21,8.83C21.5,8.58,22.2,7.71,22,7.25Z"/></svg>
